Simply-Orange-Circles/scalable/devices/camera-photo.svg

<?xml version="1.0" encoding="UTF-8" standalone="no"?>
<svg
   xmlns:dc="http://purl.org/dc/elements/1.1/"
   xmlns:cc="http://creativecommons.org/ns#"
   xmlns:rdf="http://www.w3.org/1999/02/22-rdf-syntax-ns#"
   xmlns:svg="http://www.w3.org/2000/svg"
   xmlns="http://www.w3.org/2000/svg"
   xmlns:sodipodi="http://sodipodi.sourceforge.net/DTD/sodipodi-0.dtd"
   xmlns:inkscape="http://www.inkscape.org/namespaces/inkscape"
   width="48"
   height="48"
   viewBox="0 0 12.7 12.7"
   version="1.1"
   id="svg4"
   sodipodi:docname="camera-photo.svg"
   inkscape:version="0.92.4 (5da689c313, 2019-01-14)">
  <metadata
     id="metadata10">
    <rdf:RDF>
      <cc:Work
         rdf:about="">
        <dc:format>image/svg+xml</dc:format>
        <dc:type
           rdf:resource="http://purl.org/dc/dcmitype/StillImage" />
        <dc:title></dc:title>
      </cc:Work>
    </rdf:RDF>
  </metadata>
  <defs
     id="defs8" />
  <sodipodi:namedview
     pagecolor="#ffffff"
     bordercolor="#666666"
     borderopacity="1"
     objecttolerance="10"
     gridtolerance="10"
     guidetolerance="10"
     inkscape:pageopacity="0"
     inkscape:pageshadow="2"
     inkscape:window-width="1087"
     inkscape:window-height="480"
     id="namedview6"
     showgrid="false"
     inkscape:zoom="4.9166667"
     inkscape:cx="2.1355932"
     inkscape:cy="24"
     inkscape:window-x="0"
     inkscape:window-y="25"
     inkscape:window-maximized="0"
     inkscape:current-layer="svg4" />
  <path
     d="m 6.344,0.073 a 6.29,6.29 0 0 0 -6.29,6.29 6.29,6.29 0 0 0 6.29,6.288 6.29,6.29 0 0 0 6.29,-6.289 6.29,6.29 0 0 0 -6.29,-6.29 z M 6.326,1.009 A 5.407,5.407 0 0 1 11.733,6.416 5.407,5.407 0 0 1 6.326,11.823 5.407,5.407 0 0 1 0.92,6.416 5.407,5.407 0 0 1 6.326,1.01 Z M 6.349,1.825 A 4.507,4.507 0 0 0 3.485,2.847 L 5.145,5.724 5.171,5.678 7.331,1.936 A 4.51,4.51 0 0 0 6.349,1.825 Z m 1.608,0.299 -1.66,2.874 h 4.377 A 4.542,4.542 0 0 0 7.957,2.124 Z M 3.01,3.298 A 4.517,4.517 0 0 0 1.906,7.265 H 5.302 L 4.778,6.358 Z m 4.385,2.153 0.132,0.227 2.16,3.74 A 4.516,4.516 0 0 0 10.791,5.451 H 7.396 Z M 7.552,6.993 7.132,7.718 5.365,10.78 A 4.507,4.507 0 0 0 9.214,9.869 Z M 2.024,7.718 a 4.542,4.542 0 0 0 2.717,2.874 L 6.401,7.718 H 2.025 Z"
     id="path2"
     inkscape:connector-curvature="0"
     style="fill:#ff7f2a" />
</svg>

<svg xmlns="http://www.w3.org/2000/svg" width="48" height="48" viewBox="0 0 12.7 12.7"><path d="M6.34.07a6.29 6.29 0 0 0-6.29 6.3 6.29 6.29 0 0 0 6.3 6.28 6.29 6.29 0 0 0 6.28-6.29A6.29 6.29 0 0 0 6.34.07zm-.01.94a5.4 5.4 0 0 1 5.4 5.4 5.4 5.4 0 0 1-5.4 5.41 5.4 5.4 0 0 1-5.41-5.4A5.4 5.4 0 0 1 6.32 1zm.02.82a4.5 4.5 0 0 0-2.86 1.02l1.66 2.87.02-.04 2.16-3.74a4.51 4.51 0 0 0-.98-.12zm1.6.3L6.3 5h4.37a4.54 4.54 0 0 0-2.71-2.88zM3.02 3.3a4.52 4.52 0 0 0-1.1 3.97h3.4l-.53-.91L3 3.3zm4.38 2.15l.14.23 2.16 3.74a4.52 4.52 0 0 0 1.1-3.97H7.4zM7.55 7l-.42.73-1.77 3.06a4.5 4.5 0 0 0 3.85-.91L7.55 6.99zm-5.53.73a4.54 4.54 0 0 0 2.72 2.87L6.4 7.72H2.02z" fill="#ff7f2a"/></svg>
